X: 6875
T: Charms Of Whisky, The
R: reel
M: 4/4
K: Amixolydian
ed|:c2 BA A/A/A BA|GGGB dfed|c2 BA A/A/A BA|1 BcdB e2 ed:|2 BcdB e2 ec||
|:A/A/A eA fAeA|BGGB g2 dB|A/A/A eA fAeA|1 BcdB e2 ec:|2 BcdB e2 ed||

